X:59
T:Jingle-Bell Rock
M:4/4
L:1/8
Q:1/8=320
K:C
|[ec][ec][e2c2] [ec][ec][e2c2]|[eA]gcd edcA|G2g2 G2g2|G8|
ccc2 BBB2|ABAz E4|:ABA2 E2G2|ABA2 F4|
DE2F GA2G|DEF2 G4|1 z2A^G AGA2|A2^DD z4|ccc2 BBB2|
ABAz E4:|2 z2AA BG2c|z4 z2cc|cd2c z2Ac|cd2c z3c|
c2B2 A2G2|E6cc||cd2c z2Ac|d3c z4|
zGG2 AAAA|BA2G z4|ccc2 BBB2|AGAE z4|
ABA2 E2G2|A8|A2c2 ddcc|^GGcd z4|
z2cA BAG2|c4 z4|z2cA BAG2|z2cA Bcd2|c8|
